packages/kaspersky-hexa-ui-icons/src/iconsSVGs/48/Delete.svg

<svg xmlns="http://www.w3.org/2000/svg" width="48" height="48" fill="none" viewBox="0 0 48 48"><path fill="currentColor" fill-rule="evenodd" d="M45 8c0-1.1046-.8954-2-2-2H33V3c0-1.6568-1.3431-3-3-3H19c-1.6569 0-3 1.3432-3 3v3H6c-1.1046 0-2 .8954-2 2v6h3.06l2 34h30.88l2-34H45zM18 3c0-.5523.4477-1 1-1h11c.5523 0 1 .4477 1 1v3H18zm20.06 43H10.94L9.06 14h30.88zM43 12H6V8h37zM18 40.5h-2v-21h2zm8 0h-2v-21h2zm7 0h-2v-21h2z" clip-rule="evenodd"/></svg>

<svg width="48" height="48" viewBox="0 0 48 48" fill="none" xmlns="http://www.w3.org/2000/svg">
<path fill-rule="evenodd" clip-rule="evenodd" d="M45 8C45 6.89543 44.1046 6 43 6H33V3C33 1.34315 31.6569 0 30 0H19C17.3431 0 16 1.34315 16 3V6H6C4.89543 6 4 6.89543 4 8V14H7.06L9.06 48H39.94L41.94 14H45V8ZM18 3C18 2.44772 18.4477 2 19 2H30C30.5523 2 31 2.44772 31 3V6H18V3ZM38.06 46H10.94L9.06 14H39.94L38.06 46ZM43 12H6V8H43V12ZM18 40.5H16V19.5H18V40.5ZM26 40.5H24V19.5H26V40.5ZM33 40.5H31V19.5H33V40.5Z"  fill="currentColor"/>
</svg>
